uzory/uzor_begin_9.svg

<?xml version="1.0" encoding="UTF-8" standalone="no"?>
<!-- Created with Inkscape (http://www.inkscape.org/) -->

<svg
   xmlns:svg="http://www.w3.org/2000/svg"
   xmlns="http://www.w3.org/2000/svg"
   version="1.0"
   width="488.54999"
   height="25.639196"
   id="svg3478">
  <defs
     id="defs3480" />
  <g
     transform="translate(362.60862,324.75014)"
     id="layer1">
    <g
       transform="matrix(1.25,0,0,-1.25,-46.559122,-304.95079)"
       id="g3074">
      <path
         d="m 0,0 c -2.255,1.254 -4.554,2.553 -7.8,2.64 -5.073,0.135 -8.066,-3.888 -11.519,-5.28 -1.809,-0.729 -4.771,-0.449 -4.92,1.68 -0.093,1.309 1.065,2.555 1.92,3.12 1.404,0.929 3.325,1.098 5.159,1.32 -4.343,1.467 -9.15,0.069 -12.96,-1.08 -1.213,-0.366 -2.388,-0.762 -3.48,-1.2 -1.11,-0.445 -2.127,-1.191 -3.24,-1.08 0.024,0.862 1.094,0.946 1.68,1.2 7.153,3.102 16.931,4.94 26.4,2.76 C -5.301,3.283 -2.092,1.859 0.12,0.36 0.057,0.264 -0.005,0.165 0,0"
         id="path3076"
         style="fill:#5a5758;fill-opacity:1;fill-rule:evenodd;stroke:none" />
    </g>
    <g
       transform="matrix(1.25,0,0,-1.25,-99.359362,-308.85089)"
       id="g3078">
      <path
         d="m 0,0 c 1.058,0.199 1.905,-0.838 2.641,-1.44 0.763,-0.625 1.619,-1.177 2.399,-1.8 1.108,-0.883 2.919,-3.138 4.921,-1.8 0.372,0.249 0.516,1.415 1.079,1.68 1.067,0.503 1.956,-0.701 1.681,-2.04 C 11.887,-6.707 10.168,-7.21 8.04,-6.6 5.992,-6.013 3.316,-3.163 1.561,-1.68 0.911,-1.132 -0.038,-0.805 0,0"
         id="path3080"
         style="fill:#5a5758;fill-opacity:1;fill-rule:evenodd;stroke:none" />
    </g>
    <g
       transform="matrix(1.25,0,0,-1.25,-150.50924,-304.95079)"
       id="g3082">
      <path
         d="m 0,0 c 0.617,-0.558 0.004,-1.911 1.439,-2.16 3.713,-0.643 6.483,4.72 9,5.52 C 10.768,3.447 10.682,3.122 10.92,3.12 10.939,2.98 10.895,2.906 10.801,2.88 8.584,1.237 5.404,-3.039 1.68,-3.6 0.174,-3.827 -1.537,-3.436 -1.92,-2.52 -2.457,-1.24 -1.256,0.261 0,0"
         id="path3084"
         style="fill:#5a5758;fill-opacity:1;fill-rule:evenodd;stroke:none" />
    </g>
    <g
       transform="matrix(1.25,0,0,-1.25,-129.80862,-308.10139)"
       id="g3086">
      <path
         d="M 0,0 C 1.006,0.056 3.863,1.772 4.199,2.399 2.297,4.632 -2.148,3.228 -3.84,1.8 -2.783,1.139 -1.41,-0.078 0,0 M 11.16,-4.561 C 10.712,-2.976 9.311,-1.94 9.6,0 9.771,1.149 10.783,1.971 10.8,3.239 10.271,4.647 8.168,5.03 8.039,3.239 7.941,1.862 9.758,0.737 9.119,-1.44 8.664,-2.994 7.463,-2.867 7.68,-4.561 c 0.763,-1.203 2.672,-1.095 3.48,0 m 9.36,4.441 c 0.081,-1.056 1.94,-1.964 1.919,-3.12 -0.562,-0.078 -0.858,-0.422 -1.559,-0.361 -0.151,0.25 0.172,0.877 0,1.441 -0.664,2.179 -5.601,2.171 -7.56,3.359 -2.275,-3.842 2.293,-6.482 6.84,-6.12 1.277,0.103 2.712,0.358 3.84,0.721 1.266,0.406 2.313,1.248 3.24,1.08 -0.654,-1.052 -2.241,-1.393 -3.48,-1.801 -2.444,-0.804 -6.221,-1.718 -9.361,-0.84 -0.799,0.224 -1.635,0.857 -2.279,0.84 -1.177,-0.028 -1.907,-1.348 -2.761,-1.559 -0.91,-0.035 -1.488,1.208 -2.519,1.32 -1.07,0.115 -2.459,-0.833 -3.6,-0.96 -3.103,-0.348 -5.658,0.43 -8.041,1.08 -1.541,0.42 -3.121,0.877 -4.199,1.68 0.762,1.101 2.309,-0.11 3.6,-0.481 3.562,-1.021 10.578,-2.11 11.279,2.521 0.168,1.108 -0.152,1.792 -0.6,2.519 C 4.027,1.097 2.637,0.543 1.32,0 0.24,-0.445 -1.418,-1.081 -1.92,-1.801 -2.309,-2.357 -2.039,-3.915 -3.361,-3.12 c -0.354,0.887 1.435,1.675 1.8,2.64 -2.191,1.356 -4.781,2.098 -7.32,2.76 -2.644,0.69 -5.377,1.395 -8.16,1.92 C -34.633,7.52 -53.869,4.754 -70.92,2.399 -82.363,0.819 -93.738,-1.054 -105.24,-3 c -15.847,-2.682 -34.376,-5.382 -50.52,-1.681 -11.275,2.585 -19.337,7.231 -26.76,13.68 -1.398,1.215 -3.001,2.576 -3.72,4.32 0.869,-0.228 1.237,-1.121 1.8,-1.679 6.274,-6.233 14.666,-10.491 24.84,-13.08 3.665,-0.933 7.651,-1.795 11.76,-1.92 3.749,-0.115 7.745,0.418 11.64,0.719 3.844,0.298 7.697,0.953 11.52,1.441 13.518,1.727 26.049,3.982 39.36,6.119 1.797,0.289 3.588,0.6 5.4,0.841 25.031,3.337 54.113,3.22 75.24,-3.841 2.186,1.856 5.332,3.703 9.119,3 0.815,-0.15 1.875,-0.93 2.641,-0.84 1.272,0.15 1.673,2.037 2.039,3 1.229,-0.771 1.647,-2.353 3.001,-3 2.069,1.049 6.13,1.106 8.4,0 0.871,-0.424 1.921,-1.014 1.919,-1.799 -0.991,-0.201 -1.783,0.836 -2.879,1.199 -1.485,0.493 -3.891,0.528 -5.04,-1.08 0.759,-0.791 3.049,-2.17 4.56,-2.16 0.978,0.007 2.779,1.247 4.08,1.68 9.874,3.292 20.998,5.468 34.08,5.4 14.052,-0.072 28.934,-0.406 42.84,-2.16 6.329,-0.798 12.827,-2.398 19.319,-3.479 6.491,-1.08 13.125,-1.978 19.561,-3.12 12.99,-2.306 27.652,-4.146 40.32,-1.081 1.647,0.399 3.444,1.053 5.04,1.561 6.011,1.911 11.502,5.52 15.96,9.24 1.53,1.276 2.769,2.758 4.32,3.84 -2.267,-3.026 -5.127,-5.442 -8.04,-7.681 -2.93,-2.251 -6.32,-4.348 -9.96,-5.759 -2.421,-0.939 -5.439,-2.363 -8.4,-3.241 -2.948,-0.873 -5.956,-1.553 -9.24,-2.04 -6.876,-1.017 -13.623,-0.522 -21.12,0 -14.19,0.99 -27.18,3.564 -40.2,5.88 C 100.883,0.481 94.198,1.163 87.6,2.28 80.922,3.409 74.039,4.192 67.08,4.8 59.941,5.422 52.639,6.13 45.6,5.64 36.505,5.006 27.467,3.075 20.52,-0.12"
         id="path3088"
         style="fill:#5a5758;fill-opacity:1;fill-rule:evenodd;stroke:none" />
    </g>
    <g
       transform="matrix(1.25,0,0,-1.25,-143.75874,-304.95079)"
       id="g3090">
      <path
         d="m 0,0 c -1.371,-0.151 -2.662,0.711 -4.08,1.2 -3.986,1.374 -9.219,2.726 -14.16,2.52 1.699,-0.546 3.394,-0.56 4.439,-1.56 2.68,-2.559 -0.222,-6.294 -4.08,-4.56 -1.416,0.636 -2.849,2.043 -4.558,3 -2.176,1.217 -4.475,2.418 -8.161,2.04 -3.029,-0.31 -4.449,-1.712 -6.72,-2.52 8.384,6.964 28.16,5.456 37.439,0.36 C 0.135,0.265 -0.027,0.227 0,0"
         id="path3092"
         style="fill:#5a5758;fill-opacity:1;fill-rule:evenodd;stroke:none" />
    </g>
  </g>
</svg>

<?xml version="1.0" encoding="UTF-8" standalone="no"?>
<!-- Created with Inkscape (http://www.inkscape.org/) -->
<svg
   xmlns:dc="http://purl.org/dc/elements/1.1/"
   xmlns:cc="http://creativecommons.org/ns#"
   xmlns:rdf="http://www.w3.org/1999/02/22-rdf-syntax-ns#"
   xmlns:svg="http://www.w3.org/2000/svg"
   xmlns="http://www.w3.org/2000/svg"
   xmlns:sodipodi="http://sodipodi.sourceforge.net/DTD/sodipodi-0.dtd"
   xmlns:inkscape="http://www.inkscape.org/namespaces/inkscape"
   width="488.54999"
   height="25.639196"
   id="svg3478"
   sodipodi:version="0.32"
   inkscape:version="0.46"
   sodipodi:docname="uzor_begin_9.svg"
   version="1.0"
   inkscape:output_extension="org.inkscape.output.svg.inkscape">
  <defs
     id="defs3480">
    <inkscape:perspective
       sodipodi:type="inkscape:persp3d"
       inkscape:vp_x="0 : 526.18109 : 1"
       inkscape:vp_y="0 : 1000 : 0"
       inkscape:vp_z="744.09448 : 526.18109 : 1"
       inkscape:persp3d-origin="372.04724 : 350.78739 : 1"
       id="perspective3486" />
  </defs>
  <sodipodi:namedview
     id="base"
     pagecolor="#ffffff"
     bordercolor="#666666"
     borderopacity="1.0"
     gridtolerance="10000"
     guidetolerance="10"
     objecttolerance="10"
     inkscape:pageopacity="0.0"
     inkscape:pageshadow="2"
     inkscape:zoom="1.0446607"
     inkscape:cx="241.35456"
     inkscape:cy="159.10979"
     inkscape:document-units="px"
     inkscape:current-layer="layer1"
     showgrid="false"
     inkscape:window-width="641"
     inkscape:window-height="717"
     inkscape:window-x="425"
     inkscape:window-y="144" />
  <metadata
     id="metadata3483">
    <rdf:RDF>
      <cc:Work
         rdf:about="">
        <dc:format>image/svg+xml</dc:format>
        <dc:type
           rdf:resource="http://purl.org/dc/dcmitype/StillImage" />
      </cc:Work>
    </rdf:RDF>
  </metadata>
  <g
     inkscape:label="Layer 1"
     inkscape:groupmode="layer"
     id="layer1"
     transform="translate(362.60862,324.75014)">
    <g
       id="g3074"
       transform="matrix(1.25,0,0,-1.25,-46.559122,-304.95079)">
      <path
         d="M 0,0 C -2.255,1.254 -4.554,2.553 -7.8,2.64 C -12.873,2.775 -15.866,-1.248 -19.319,-2.64 C -21.128,-3.369 -24.09,-3.089 -24.239,-0.96 C -24.332,0.349 -23.174,1.595 -22.319,2.16 C -20.915,3.089 -18.994,3.258 -17.16,3.48 C -21.503,4.947 -26.31,3.549 -30.12,2.4 C -31.333,2.034 -32.508,1.638 -33.6,1.2 C -34.71,0.755 -35.727,0.009 -36.84,0.12 C -36.816,0.982 -35.746,1.066 -35.16,1.32 C -28.007,4.422 -18.229,6.26 -8.76,4.08 C -5.301,3.283 -2.092,1.859 0.12,0.36 C 0.057,0.264 -0.005,0.165 0,0"
         style="fill:#5a5758;fill-opacity:1;fill-rule:evenodd;stroke:none"
         id="path3076" />
    </g>
    <g
       id="g3078"
       transform="matrix(1.25,0,0,-1.25,-99.359362,-308.85089)">
      <path
         d="M 0,0 C 1.058,0.199 1.905,-0.838 2.641,-1.44 C 3.404,-2.065 4.26,-2.617 5.04,-3.24 C 6.148,-4.123 7.959,-6.378 9.961,-5.04 C 10.333,-4.791 10.477,-3.625 11.04,-3.36 C 12.107,-2.857 12.996,-4.061 12.721,-5.4 C 11.887,-6.707 10.168,-7.21 8.04,-6.6 C 5.992,-6.013 3.316,-3.163 1.561,-1.68 C 0.911,-1.132 -0.038,-0.805 0,0"
         style="fill:#5a5758;fill-opacity:1;fill-rule:evenodd;stroke:none"
         id="path3080" />
    </g>
    <g
       id="g3082"
       transform="matrix(1.25,0,0,-1.25,-150.50924,-304.95079)">
      <path
         d="M 0,0 C 0.617,-0.558 0.004,-1.911 1.439,-2.16 C 5.152,-2.803 7.922,2.56 10.439,3.36 C 10.768,3.447 10.682,3.122 10.92,3.12 C 10.939,2.98 10.895,2.906 10.801,2.88 C 8.584,1.237 5.404,-3.039 1.68,-3.6 C 0.174,-3.827 -1.537,-3.436 -1.92,-2.52 C -2.457,-1.24 -1.256,0.261 0,0"
         style="fill:#5a5758;fill-opacity:1;fill-rule:evenodd;stroke:none"
         id="path3084" />
    </g>
    <g
       id="g3086"
       transform="matrix(1.25,0,0,-1.25,-129.80862,-308.10139)">
      <path
         d="M 0,0 C 1.006,0.056 3.863,1.772 4.199,2.399 C 2.297,4.632 -2.148,3.228 -3.84,1.8 C -2.783,1.139 -1.41,-0.078 0,0 M 11.16,-4.561 C 10.712,-2.976 9.311,-1.94 9.6,0 C 9.771,1.149 10.783,1.971 10.8,3.239 C 10.271,4.647 8.168,5.03 8.039,3.239 C 7.941,1.862 9.758,0.737 9.119,-1.44 C 8.664,-2.994 7.463,-2.867 7.68,-4.561 C 8.443,-5.764 10.352,-5.656 11.16,-4.561 M 20.52,-0.12 C 20.601,-1.176 22.46,-2.084 22.439,-3.24 C 21.877,-3.318 21.581,-3.662 20.88,-3.601 C 20.729,-3.351 21.052,-2.724 20.88,-2.16 C 20.216,0.019 15.279,0.011 13.32,1.199 C 11.045,-2.643 15.613,-5.283 20.16,-4.921 C 21.437,-4.818 22.872,-4.563 24,-4.2 C 25.266,-3.794 26.313,-2.952 27.24,-3.12 C 26.586,-4.172 24.999,-4.513 23.76,-4.921 C 21.316,-5.725 17.539,-6.639 14.399,-5.761 C 13.6,-5.537 12.764,-4.904 12.12,-4.921 C 10.943,-4.949 10.213,-6.269 9.359,-6.48 C 8.449,-6.515 7.871,-5.272 6.84,-5.16 C 5.77,-5.045 4.381,-5.993 3.24,-6.12 C 0.137,-6.468 -2.418,-5.69 -4.801,-5.04 C -6.342,-4.62 -7.922,-4.163 -9,-3.36 C -8.238,-2.259 -6.691,-3.47 -5.4,-3.841 C -1.838,-4.862 5.178,-5.951 5.879,-1.32 C 6.047,-0.212 5.727,0.472 5.279,1.199 C 4.027,1.097 2.637,0.543 1.32,0 C 0.24,-0.445 -1.418,-1.081 -1.92,-1.801 C -2.309,-2.357 -2.039,-3.915 -3.361,-3.12 C -3.715,-2.233 -1.926,-1.445 -1.561,-0.48 C -3.752,0.876 -6.342,1.618 -8.881,2.28 C -11.525,2.97 -14.258,3.675 -17.041,4.2 C -34.633,7.52 -53.869,4.754 -70.92,2.399 C -82.363,0.819 -93.738,-1.054 -105.24,-3 C -121.087,-5.682 -139.616,-8.382 -155.76,-4.681 C -167.035,-2.096 -175.097,2.55 -182.52,8.999 C -183.918,10.214 -185.521,11.575 -186.24,13.319 C -185.371,13.091 -185.003,12.198 -184.44,11.64 C -178.166,5.407 -169.774,1.149 -159.6,-1.44 C -155.935,-2.373 -151.949,-3.235 -147.84,-3.36 C -144.091,-3.475 -140.095,-2.942 -136.2,-2.641 C -132.356,-2.343 -128.503,-1.688 -124.68,-1.2 C -111.162,0.527 -98.631,2.782 -85.32,4.919 C -83.523,5.208 -81.732,5.519 -79.92,5.76 C -54.889,9.097 -25.807,8.98 -4.68,1.919 C -2.494,3.775 0.652,5.622 4.439,4.919 C 5.254,4.769 6.314,3.989 7.08,4.079 C 8.352,4.229 8.753,6.116 9.119,7.079 C 10.348,6.308 10.766,4.726 12.12,4.079 C 14.189,5.128 18.25,5.185 20.52,4.079 C 21.391,3.655 22.441,3.065 22.439,2.28 C 21.448,2.079 20.656,3.116 19.56,3.479 C 18.075,3.972 15.669,4.007 14.52,2.399 C 15.279,1.608 17.569,0.229 19.08,0.239 C 20.058,0.246 21.859,1.486 23.16,1.919 C 33.034,5.211 44.158,7.387 57.24,7.319 C 71.292,7.247 86.174,6.913 100.08,5.159 C 106.409,4.361 112.907,2.761 119.399,1.68 C 125.89,0.6 132.524,-0.298 138.96,-1.44 C 151.95,-3.746 166.612,-5.586 179.28,-2.521 C 180.927,-2.122 182.724,-1.468 184.32,-0.96 C 190.331,0.951 195.822,4.56 200.28,8.28 C 201.81,9.556 203.049,11.038 204.6,12.12 C 202.333,9.094 199.473,6.678 196.56,4.439 C 193.63,2.188 190.24,0.091 186.6,-1.32 C 184.179,-2.259 181.161,-3.683 178.2,-4.561 C 175.252,-5.434 172.244,-6.114 168.96,-6.601 C 162.084,-7.618 155.337,-7.123 147.84,-6.601 C 133.65,-5.611 120.66,-3.037 107.64,-0.721 C 100.883,0.481 94.198,1.163 87.6,2.28 C 80.922,3.409 74.039,4.192 67.08,4.8 C 59.941,5.422 52.639,6.13 45.6,5.64 C 36.505,5.006 27.467,3.075 20.52,-0.12"
         style="fill:#5a5758;fill-opacity:1;fill-rule:evenodd;stroke:none"
         id="path3088" />
    </g>
    <g
       id="g3090"
       transform="matrix(1.25,0,0,-1.25,-143.75874,-304.95079)">
      <path
         d="M 0,0 C -1.371,-0.151 -2.662,0.711 -4.08,1.2 C -8.066,2.574 -13.299,3.926 -18.24,3.72 C -16.541,3.174 -14.846,3.16 -13.801,2.16 C -11.121,-0.399 -14.023,-4.134 -17.881,-2.4 C -19.297,-1.764 -20.73,-0.357 -22.439,0.6 C -24.615,1.817 -26.914,3.018 -30.6,2.64 C -33.629,2.33 -35.049,0.928 -37.32,0.12 C -28.936,7.084 -9.16,5.576 0.119,0.48 C 0.135,0.265 -0.027,0.227 0,0"
         style="fill:#5a5758;fill-opacity:1;fill-rule:evenodd;stroke:none"
         id="path3092" />
    </g>
  </g>
</svg>
